X:266
T:the Stool of Repentance
O:scotland
R:Jig
M:6/8
C:Niel Gow 
K:A
a2e c2e | agf edc | aff f2e | fag f2e |\
a2e c2e | agf edc | d2e f2e |f<ac B2A :|
|:\
cAA eAA | cAA eAA | dBB fBB | dBB fed | \
cAA eAA | cAA edc | d2e f2e | f<ac B2A :|
